X: 43134
T: Wink And She'll Follow You
R: slip jig
M: 9/8
K: Gmajor
|:D2A ABG ABc|E2E AGE G2E|D2A ABG ABc|BAG AGE G2E:|
c2c e2c ABc|BAB dBG G2B|c2c e2c ABc|BAG AGE GED|
c2c e2c ABc|BAB dBG GBc|g2g gdB GAB|cBA BAG AGE||

